X:064
T:Campbell's Farewell to Redcastle
T:Campbell's Farewell to Red Gap
S:Various books & records
Z:Nigel Gatherer
M:2/4
L:1/8
K:A
E|AA/B/ cc/d/|ea e>d|cA AB/c/|dd/B/ =GE|
AA/B/ cc/d/|ea e>d|cB/A/ =G/A/B/G/|A2 A:|
=g/f/|ea a=g/f/|ea e>d|cA AB/c/|dd/B/ =Gg/f/|
ea a=g/f/|ea e>d|cB/A/ =G/A/B/G/|A2 A=g/f/|
ea a=g/f/|ea e>d|cA AB/c/|dd/B/ =GE|
A/B/c/d/ c/d/e/f/|e/f/g/a/ e>d|\
cB/A/ =G/A/B/G/|A2 A|]
<end>
<start>
